_includes/icons/color-star-filled.svg

<svg fill="#666" height="50" viewBox="0 0 48 48" width="50" xmlns="http://www.w3.org/2000/svg"><path d="m24 4.050781 6.488281 13.136719 14.511719 2.101563-10.5 10.222656 2.476563 14.4375-12.976563-6.8125-12.976562 6.8125 2.476562-14.4375-10.5-10.222656 14.511719-2.101563z" fill="#ffca28"/></svg>

<svg xmlns="http://www.w3.org/2000/svg" viewBox="0 0 48 48" width="50" height="50" fill="#666"><path d="M 24 4.050781 L 30.488281 17.1875 L 45 19.289063 L 34.5 29.511719 L 36.976563 43.949219 L 24 37.136719 L 11.023438 43.949219 L 13.5 29.511719 L 3 19.289063 L 17.511719 17.1875 Z" fill="#ffca28"/></svg>
